X:112
T:Suspicion
M:C|
L:1/8
C:© Paul Gitlitz 2001
R:Reel
B:Hunters and Gatherers
K:Am
"F#dim"^d2c2 "Am"a2e2|"E7"BA^GB "Am"AGE2|"F#dim"^d2c2 "Am"a2e2|"E7"BA^GB "Am"A4|!
"F#dim"^d2c2 "Am"a2e2|"E7"(3cBA ^GB "Am"AGED|"F"FEFA "Dm"d3c|"E7"BA^GB "Am"A4:|!
|:"F"FEFA "Dm"d3c|"E7"BA^GB "Am"AFE2|"F"FEFA "Dm"d3c|"E7"BA^GB "Am"A4|!
"F"FEFA "Dm"f3e|"E7"dcBe "Am"BcA2|"F"FEFA "C"dcBc|"Ebdim"d2^d2 "E7"e4:|]
